svgs/sharp-regular/car-battery.svg

<svg xmlns="http://www.w3.org/2000/svg" viewBox="0 0 512 512"><!--! Font Awesome Pro 6.6.0 by @fontawesome - https://fontawesome.com License - https://fontawesome.com/license (Commercial License) Copyright 2024 Fonticons, Inc. --><path d="M80 64l128 0 0 32 96 0 0-32 128 0 0 32 32 0 48 0 0 48 0 256 0 48-48 0L48 448 0 448l0-48L0 144 0 96l48 0 32 0 0-32zM48 144l0 256 416 0 0-256L48 144zm336 32l0 16 0 32 32 0 16 0 0 32-16 0-32 0 0 32 0 16-32 0 0-16 0-32-32 0-16 0 0-32 16 0 32 0 0-32 0-16 32 0zM96 224l96 0 16 0 0 32-16 0-96 0-16 0 0-32 16 0z"/></svg>

<svg xmlns="http://www.w3.org/2000/svg" viewBox="0 0 512 512"><!--! Font Awesome Pro 6.4.2 by @fontawesome - https://fontawesome.com License - https://fontawesome.com/license (Commercial License) Copyright 2023 Fonticons, Inc. --><path d="M80 64H208V96h96V64H432V96h32 48v48V400v48H464 48 0V400 144 96H48 80V64zM48 144V400H464V144H48zm336 32v16 32h32 16v32H416 384v32 16H352V288 256H320 304V224h16 32V192 176h32zM96 224h96 16v32H192 96 80V224H96z"/></svg>
